X:1
T:Title
%%score ( 1 2 ) { 3 | 4 }
L:1/8
Q:1/4=108
M:4/4
K:F
V:1 treble nm="Grand Piano, Unnamed-000"
V:2 treble 
V:3 bass nm="Choir Pad, Gloaming"
V:4 bass 
V:1
 [Fc]3 [Fd] [Fc]2 [FA]2 | [Ec]3 [GB] [GB]2 [FA]2 | [DG]2 [B,D]2 [CF]2 [FA]2 | c2- [Ac][GB] [FA]4 | %4
w: By~Old~Ballad~Melody * * *||||
 [Fc]3 [Fd] [Fc]2 [FA]2 | [Ec]3 [GB] [GB]2 [FA]2 | [DG]2 [B,D]2 [CF]2 [CE]2 | [EA]3 [EG] F4 | %8
w: ||||
 [_EF]3 [EG] [DG]2 [DF]2 | [_EF]2 GA [DG]2 [DF]2 | [FG]3 [FG] [FA]2 [Fc]2 | [Fd]2 cA [EG]4 | %12
w: ||||
 [Fc]3 [Fd] [Fc]2 [FA]2 | [Ec]3 [GB] [GB]2 [FA]2 | [DG]2 [B,D]2 [CF]2 [CE]2 | [EA]3 [EG] F4- | %16
w: ||||
 F4 z4 |] %17
w: |
V:2
 x8 | x8 | x8 | E2 z2 z4 | x8 | x8 | x8 | x8 | x8 | z2 _E2 z4 | x8 | z2 F2 z4 | x8 | x8 | x8 | x8 | %16
 x8 |] %17
V:3
 A,3 B, A,2 C2 | C3[K:treble] C C2 C2 | G,2 G,2 A,2 C2 | G,2 CC C4 | A,3 B, A,2 C2 | %5
 C3[K:treble] C C2 C2 | G,2 G,2[K:bass] A,2 G,2 | C3 B, A,4 | A,3 A, B,2 B,2 | A,2 C2 B,2 B,2 | %10
 =B,3 B, C2 A,2 | B,2 A,2 C4 | A,3 B, A,2[K:treble] C2 | C3 C C2 C2 | G,2 G,2 A,2 G,2 | %15
 C3 B, A,4- | A,4 z4 |] %17
V:4
 F,3 F, F,2 F,2 | C,3 E, F,2 F,2 | B,,2 G,,2 C,2 C,2 | C,3 C, F,4 | F,3 F, F,2 F,2 | %5
 C,3 E, F,2 F,2 | B,,2 G,,2 C,2 C,2 | C,3 C, [F,,F,]4 | F,3 F, B,,2 B,,2 | F,2 F,2 B,,2 B,,2 | %10
 G,3 G, C,2 C,2 | B,,2 C,2 C,4 | F,3 F, F,2 F,2 | C,3 E, F,2 F,2 | B,,2 G,,2 C,2 C,2 | %15
 C,3 C, [F,,F,]4- | [F,,F,]4 z4 |] %17

